!!!OTL: D'Fullenhochzeit, S. 38
!!!id: L0031
**kern
*clefG2
*k[b-e-]
*g:
{8dd
=1
8dd
8b-
8cc
8dd
=2
8b-
8a
8g}
=3
{8dd
=4
8dd
8b-
8cc
8dd
=5
8b-
8a
8g}
=6
{8b-
=7
4a
8d
8dd
=8
4dd
8b-}
=9
{8dd
=10
8ee-
8dd
8cc
8dd
=11
8b-
8a
8g}
==
*-
!!!minrhy: 8
!!!meters: 2/4 ]  ZZ[4
!!!cut: D'Fullenhochzeit, S. 38
!!!reg: Luxemburg
!!!trd: Die Luxemburger Volkslieder &auml;lterer Zeit, Luxemburg 1904 posth.
!!!rhy1: X  XXXX  XXX
!!!rhy2: X  XXXX  XXX
!!!key: L0031  08  G 2/4 ]  ZZ[4
!!!mod: SECHSTONSKALA MOLL ?]  AMBITUS[9b
!!!kad: 113b1
!!!akz: 53b_53b_25_6b3b_
!!!fot: 'a__a__b__aw_
!!!for: 'a__a__b__a__
!!!fok: '\__\__S__\__
!! PHRAS[AUFTAKTIG]
!!!fkt: Hochzeitslied
!! FONTAINE, Ed.:
!! PR[21] 2K[0] 2G[3] 3K[24] 3G[10] 4A[7] 4Ü[0] 5A[0] 6K[0] 6G[0]
!! 7K[0] 7G[0] 8A[0] MEHR[0] SI[45] ABS[29] SR[3] SP[41]
!! ST[11] 2k[3] 2g[7] 3k[14] 3g[3] 4d[0] 4ü[0] 5d[0] 6k[0] 6g[0]
!! 7k[0] 7g[0] 8d[7] mehr[0] si[34] dm[+11] sr[10] sp[24]
!! 1F[65] 2F[29] 3F[0] 4F[0] LF[0] 2P[6] 3P[0] 4P[0] TRI[0] DF[3] AB[31]
!! TF[0] U3K[0] U3[0] U4[0] U4Ü[0] U5[10] U6K[0] U6[0] U7K[0] U7[0]
!! N1[20] N2K[0] N2[7] N3K[0] N3[23] N4[17] N4Ü[0] N5[23] N6K[0] N6[0]
!!!n7k: 0] N7[0] O1[0] O2K[0] O2[0] O3K[0] O3[0] HÖ[0
!!!RNB: symbol: &auml;      = a umlaut  (UTF-8: Å„)
